!!!COM: Beethoven, Ludwig van
!!!CDT: 1770///-1827///
!!!OTL: Six Variations on a Swiss Song
!!!OMV: Variation 1
!!!OPS: WO 64
!!!ODT: ~1791///
!!!AGN: Variations
**kern	**dynam	**kern	**dynam
*Ipiano	*Ipiano	*Ipiano	*Ipiano
*clefF4	*clefF4	*clefG2	*clefG2
*met(C)	*met(C)	*met(C)	*met(C)
*M4/4	*M4/4	*M4/4	*M4/4
*MM120	*MM120	*MM120	*MM120
4r	.	4c'/	p
=14	=14	=14	=14
(4F'\	.	(12f^/L	.
.	.	12B/	.
.	.	12c/J	.
4E'\	.	12g^/L	.
.	.	12B/	.
.	.	12c/J	.
4F'\	.	12a^/L	.
.	.	12B/	.
.	.	12c/J	.
4D'\)	.	12f^/L	.
.	.	12B/	.
.	.	12c/J)	.
=15	=15	=15	=15
(12C\L	.	[2cc^\	.
12F\	.	.	.
12A\J	.	.	.
12c\L	.	.	.
12d\	.	.	.
12B\J	.	.	.
4c\)	.	(12cc\L]	.
.	.	12dd\	.
.	.	12cc\J	.
4r	.	12b-/L	.
.	.	12a/	.
.	.	12g/J	.
=16	=16	=16	=16
12r	.	4f^/)	p
(12d\L	.	.	.
12c\J	.	.	.
12B-\L	.	4r	.
12A\	.	.	.
12G\J	.	.	.
4F\)	.	12r	.
.	.	12r	.
.	.	(12g#/	.
4r	.	12a/L	.
.	.	12b-/	.
.	.	12b/J	.
=17	=17	=17	=17
(4e'\	.	12cc^/L	.
.	.	12f#/	.
.	.	12g/J	.
4d'\	.	12dd^/L	.
.	.	12f#/	.
.	.	12g/J	.
4c\	.	12ee^/L	.
.	.	12f#/	.
.	.	12g/J	.
4e'\)	.	12cc^/L	.
.	.	12f#/	.
.	.	12g/J)	.
=18	=18	=18	=18
(12F\L	.	[2ff^\	.
12A\	.	.	.
12c#\J	.	.	.
12d\L	.	.	.
12c#\	.	.	.
12d\J	.	.	.
4G\ 4B\)	.	(12ff\L]	.
.	.	12aa\	.
.	.	12gg\J	.
4r	.	12ff\L	.
.	.	12ee\	.
.	.	12dd\J	.
=19	=19	=19	=19
12r	.	4cc\)	.
(12c\L	.	.	.
12G\J	.	.	.
12F\L	.	4r	.
12E\	.	.	.
12G\J	.	.	.
4C/)	.	4r	.
4r	.	4cc'\	p
=20	=20	=20	=20
4r	.	12ff^/L	.
.	.	12f/	.
.	.	12ff/J	.
(4c\	.	12dd#/L	.
.	.	12ee/	.
.	.	12f/J	.
4B-\	.	12ee/L	.
.	.	12dd/	.
.	.	12f/J	.
4A\)	.	12dd/L	.
.	.	12cc/	.
.	.	12f/J	.
=21	=21	=21	=21
4r	.	(12ff^/L	.
.	.	12f/	.
.	.	12ff/J	.
(4c\	.	12dd#/L	.
.	.	12ee/	.
.	.	12f/J	.
[4B-\	.	12ee/L	.
.	.	12dd/	.
.	.	12f/J	.
12B-\L]	.	12dd/L	.
12c\	.	12cc/	.
12B-\J	.	12e/J)	.
=22	=22	=22	=22
(4A'\)	.	(12f^/L	p
.	.	12c/	.
.	.	12f/J	.
4E'\	.	12g^/L	.
.	.	12B-/	.
.	.	12c/J	.
4F'\	.	12a^/L	.
.	.	12e/	.
.	.	12f/J	.
4D'\)	.	12b-^/L	.
.	.	12e/	.
.	.	12f/J)	.
=23	=23	=23	=23
(12C\L	.	[2cc^\	.
12F\	.	.	.
12A\J	.	.	.
12c\L	.	.	.
12d\	.	.	.
12B\J	.	.	.
4c\)	.	(12cc\L]	p
.	.	12dd\	.
.	.	12cc\J	.
4r	.	12b-/L	.
.	.	12a/	.
.	.	12g/J	.
=24	=24	=24	=24
12r	.	4f/)	.
(12d\L	.	.	.
12c\J	.	.	.
12B-\L	.	4r	.
12A\	.	.	.
12G\J	.	.	.
4F\)	.	4r	.
==;	==;	==;	==;
*-	*-	*-	*-
!!!ENC: Craig Stuart Sapp
!!!END: 2004/06/07/
